!!!OTL: BIN I NET A PUERSCHLE
!!!ARE: Europa, Mitteleuropa, Deutschland, Schwaben
!!!SCT: E1003
!!!YEM: Copyright 1995, estate of Helmut Schaffrath.
**kern
*ICvox
*Ivox
!! Mixed meters:  2/4; 3/8
*M2/4
*k[f#]
*G:
=1
{8.g
16a
8b
8cc
=2
8dd
8b
8dd
8r}
=3
{8b
8g
8a
8r}
=4
{8.g
16a
8b
8cc
=5
8dd
8b
8b
8r}
=6
{8b
8g
8a
8r}
=7
{8dd
8b
8b
8dd
=8
*M3/8
8cc
8a
8a}
=9
{8cc
=10
*M2/4
8b
8g
8g
8b
=11
8a
8f#
4d}
=12
{8dd
8b
8b
8dd
=13
*M3/8
8cc
8a
8a}
=14
{8cc
=15
*M2/4
8b
8g
8g
8b
=16
8a
8f#
4d}
=17
{8.g
16a
8b
8cc
=18
8dd
8b
8dd
8r}
=19
{8b
8g
8a
8r}
=20
{8.g
16a
8b
8cc
=21
8dd
8b
8dd
8r}
=22
{8b
8g
8a
8r}
=23
*M3/8
{8dd
8b
8dd
=24
8cc
8a
8cc}
=25
{8b
8g
8b
=26
8a
8f#
8a}
=27
{8.d
16e
8f#
=28
4g
8r}
=29
{8.d
16e
8f#
=30
4g
8r}
==
!!!AGN: Tanz - Lied
!!!ONB: ESAC (Essen Associative Code) Database: ERK3
!!!AMT: irregular
!!!AIN: vox
!!!EED: Helmut Schaffrath
!!!EEV: 1.0
*-
